img/help1.svg

<svg width="140" height="140" viewBox="0 0 140 140" fill="none" xmlns="http://www.w3.org/2000/svg">
<path d="M87.4415 82.1685H39.4335C31.6351 82.1685 25.3132 88.4903 25.3132 96.2888V114.009H36.8014V127.203H89.3282V114.009H101.562C101.562 107.393 101.562 102.932 101.562 96.2888C101.562 88.4903 95.2399 82.1685 87.4415 82.1685V82.1685Z" fill="#FF9A02"/>
<path d="M25.3132 114.009H36.8014V127.203H25.3132V114.009Z" fill="white"/>
<path d="M36.8009 128.297H25.3132C24.7095 128.297 24.2195 127.807 24.2195 127.203V114.009C24.2195 113.405 24.7095 112.915 25.3132 112.915H36.8014C37.4052 112.915 37.8952 113.405 37.8952 114.009V127.203C37.8946 127.807 37.4052 128.297 36.8009 128.297ZM26.407 126.109H35.7077V115.102H26.407V126.109Z" fill="black"/>
<path d="M89.3282 114.009H101.562V127.203H89.3282V114.009Z" fill="white"/>
<path d="M101.562 128.297H89.3282C88.7244 128.297 88.2344 127.807 88.2344 127.203V114.009C88.2344 113.405 88.7244 112.915 89.3282 112.915H101.562C102.166 112.915 102.656 113.405 102.656 114.009V127.203C102.656 127.807 102.166 128.297 101.562 128.297ZM90.4219 126.109H100.468V115.102H90.4219V126.109Z" fill="black"/>
<path d="M89.3282 115.102C88.7244 115.102 88.2344 114.612 88.2344 114.009V104.686C88.2344 104.082 88.7244 103.592 89.3282 103.592C89.9319 103.592 90.4219 104.082 90.4219 104.686V114.009C90.4219 114.612 89.9319 115.102 89.3282 115.102Z" fill="black"/>
<path d="M49.3183 69.8845V83.2977V83.2994C49.3183 91.0896 55.6336 97.4044 63.4238 97.4044C71.2102 97.4044 77.5294 91.0934 77.5294 83.2977C77.5294 80.5841 77.5294 72.6889 77.5294 69.8845H49.3183Z" fill="white"/>
<path d="M89.3282 128.297H36.8009C36.1971 128.297 35.7071 127.807 35.7071 127.203V115.102H25.3132C24.7095 115.102 24.2195 114.612 24.2195 114.009V96.2882C24.2195 87.8991 31.0445 81.0747 39.4335 81.0747H48.2251V69.8845C48.2251 69.2808 48.7151 68.7908 49.3188 68.7908H77.5294C78.1331 68.7908 78.6231 69.2808 78.6231 69.8845V81.0747H87.442C95.8311 81.0747 102.656 87.8991 102.656 96.2882V114.008C102.656 114.612 102.166 115.102 101.562 115.102H90.422V127.203C90.422 127.807 89.932 128.297 89.3282 128.297V128.297ZM37.8946 126.109H88.2339V114.009C88.2339 113.405 88.7239 112.915 89.3277 112.915H100.468V96.2882C100.468 89.1055 94.6236 83.2622 87.4415 83.2622H77.5288C76.9251 83.2622 76.4351 82.7722 76.4351 82.1684V70.9783H50.4126V82.1684C50.4126 82.7722 49.9226 83.2622 49.3188 83.2622H39.433C32.2503 83.2622 26.4064 89.1061 26.4064 96.2882V112.914H36.8009C37.4046 112.914 37.8946 113.404 37.8946 114.008V126.109Z" fill="black"/>
<path d="M63.4375 72.257C45.1697 72.257 30.3608 57.4481 30.3608 39.1803V25.3263C30.3608 20.7348 34.0834 17.0122 38.675 17.0122H96.5141V39.1803C96.5141 57.4481 81.7053 72.257 63.4375 72.257Z" fill="#FF9A02"/>
<path d="M63.4375 73.3507C44.5955 73.3507 29.2671 58.0218 29.2671 39.1803V25.3263C29.2671 20.1392 33.4873 15.9185 38.675 15.9185H96.5147C97.1184 15.9185 97.6084 16.4085 97.6084 17.0122V39.1803C97.6079 58.0218 82.279 73.3507 63.4375 73.3507V73.3507ZM38.675 18.1054C34.6937 18.1054 31.4546 21.3446 31.4546 25.3258V39.1798C31.4546 56.8154 45.8019 71.1627 63.4375 71.1627C81.0731 71.1627 95.4204 56.8154 95.4204 39.1798V18.1054H38.675Z" fill="black"/>
<path d="M91.6092 41.4159V38.7783C91.6092 23.3597 78.9966 10.8604 63.4375 10.8604C47.8789 10.8604 35.2658 23.3597 35.2658 38.7783V41.4159C30.374 41.3169 26.4928 45.2134 26.4928 49.9242C26.4928 54.9543 30.8842 58.9329 36.0095 58.3909C38.9167 70.7426 50.0894 79.9449 63.4369 79.9449C76.7856 79.9449 87.9572 70.7415 90.8644 58.3909C95.9831 58.9323 100.381 54.9609 100.381 49.9242C100.382 45.2118 96.4977 41.3169 91.6092 41.4159V41.4159Z" fill="white"/>
<path d="M63.4375 81.0392C50.0762 81.0392 38.582 72.2417 35.1695 59.5334C32.766 59.5547 30.386 58.6704 28.5797 57.0446C26.5584 55.2262 25.399 52.6307 25.399 49.9248C25.399 47.3348 26.4228 44.905 28.2811 43.0839C29.8873 41.51 31.9479 40.5645 34.172 40.3616V38.7778C34.172 22.7806 47.3003 9.76611 63.4375 9.76611C79.5747 9.76611 92.703 22.7806 92.703 38.7778V40.3616C94.9271 40.5639 96.9877 41.51 98.5939 43.0845C100.452 44.905 101.476 47.3342 101.476 49.9248C101.476 52.6307 100.317 55.2251 98.2964 57.044C96.5081 58.6524 94.179 59.5334 91.7809 59.5334C91.7558 59.5334 91.7306 59.5334 91.7055 59.5334C88.2924 72.2417 76.7987 81.0392 63.4375 81.0392V81.0392ZM36.0106 57.2972C36.5126 57.2972 36.9573 57.6423 37.0743 58.1405C39.9448 70.3347 50.7855 78.8512 63.4375 78.8512C76.0894 78.8512 86.9301 70.3347 89.8001 58.1405C89.9265 57.604 90.4367 57.2485 90.9798 57.3032C93.1169 57.5296 95.2498 56.8422 96.8324 55.4176C98.3932 54.0138 99.2879 52.0111 99.2879 49.9248C99.2879 47.9276 98.4976 46.0529 97.0626 44.6469C95.6145 43.2267 93.6813 42.4638 91.6311 42.5103C91.3396 42.5037 91.053 42.4036 90.8436 42.198C90.6341 41.9924 90.5149 41.7102 90.5149 41.4165V38.7789C90.5149 23.9881 78.3677 11.9547 63.4369 11.9547C48.5062 11.9547 36.359 23.9881 36.359 38.7789V41.4165C36.359 41.7102 36.2408 41.9924 36.0308 42.198C35.8208 42.4036 35.5387 42.5103 35.2433 42.5103C33.1783 42.4681 31.2599 43.2278 29.8112 44.6464C28.3762 46.0524 27.586 47.9271 27.586 49.9248C27.586 52.0111 28.4812 54.0138 30.0426 55.4187C31.6247 56.8422 33.7553 57.5285 35.8941 57.3032C35.934 57.2994 35.9723 57.2972 36.0106 57.2972V57.2972Z" fill="black"/>
<path d="M96.5141 36.0012H52.3157C42.8991 36.0012 35.2658 28.3674 35.2658 18.9513C35.2658 9.53465 42.8996 1.90137 52.3157 1.90137H81.2459C89.6782 1.90137 96.5141 8.7373 96.5141 17.1696V36.0012Z" fill="#FF9A02"/>
<path d="M96.5141 37.095H52.3157C42.3112 37.095 34.172 28.9553 34.172 18.9508C34.172 8.94627 42.3117 0.807129 52.3162 0.807129H81.2465C90.2683 0.807129 97.6084 8.14729 97.6084 17.1691V36.0018C97.6079 36.6056 97.1184 37.095 96.5141 37.095V37.095ZM52.3162 2.99463C43.5181 2.99463 36.3601 10.1527 36.3601 18.9513C36.3601 27.75 43.5181 34.9081 52.3162 34.9081H95.4209V17.1691C95.4209 9.35315 89.0624 2.99463 81.2465 2.99463H52.3162Z" fill="black"/>
<path d="M36.8008 115.102C36.1971 115.102 35.7071 114.612 35.7071 114.009V104.686C35.7071 104.082 36.1971 103.592 36.8008 103.592C37.4046 103.592 37.8946 104.082 37.8946 104.686V114.009C37.8946 114.612 37.4051 115.102 36.8008 115.102Z" fill="black"/>
<path d="M71.4487 72.34H71.4498C72.182 72.4401 72.9329 72.4444 73.6504 72.2673C76.2809 71.6181 78.2321 69.243 78.2321 66.4119C78.2321 63.5807 76.2814 61.2051 73.6504 60.5565C72.9329 60.3793 72.182 60.3837 71.4498 60.4838C66.1287 61.2106 60.7332 61.2106 55.4121 60.4838C54.6798 60.3837 53.929 60.3793 53.2115 60.5565C50.581 61.2056 48.6298 63.5807 48.6298 66.4119C48.6298 69.243 50.5805 71.6181 53.2115 72.2673C53.929 72.4444 54.6798 72.4401 55.4121 72.34H55.4132C60.7332 71.6132 66.1281 71.6132 71.4487 72.34Z" fill="#FF9A02"/>
<path d="M78.9895 56.6546C78.7795 56.6546 78.5679 56.595 78.3808 56.4687L70.8176 51.3898C70.5151 51.1869 70.3336 50.8462 70.3336 50.482C70.3336 50.1178 70.5151 49.7771 70.8176 49.5742L78.3808 44.4954C78.8834 44.1569 79.5621 44.2925 79.8984 44.7934C80.2353 45.2949 80.1019 45.9747 79.6004 46.311L73.3895 50.482L79.6004 54.653C80.1019 54.9894 80.2353 55.6691 79.8984 56.1706C79.6879 56.4845 79.3423 56.6546 78.9895 56.6546Z" fill="black"/>
<path d="M82.4753 51.5757H71.4273C70.8236 51.5757 70.3336 51.0857 70.3336 50.4819C70.3336 49.8782 70.8236 49.3882 71.4273 49.3882H82.4748C83.0785 49.3882 83.5685 49.8782 83.5685 50.4819C83.5685 51.0857 83.0791 51.5757 82.4753 51.5757Z" fill="black"/>
<path d="M47.8575 56.6546C47.5053 56.6546 47.1597 56.4845 46.9486 56.1706C46.6118 55.6691 46.7452 54.9894 47.2467 54.653L53.4581 50.482L47.2467 46.311C46.7452 45.9747 46.6112 45.2949 46.9486 44.7934C47.285 44.2925 47.9642 44.1574 48.4662 44.4954L56.03 49.5742C56.3325 49.7771 56.514 50.1178 56.514 50.482C56.514 50.8462 56.3325 51.187 56.03 51.3898L48.4662 56.4687C48.2792 56.5945 48.0675 56.6546 47.8575 56.6546Z" fill="black"/>
<path d="M55.4203 51.5757H44.3729C43.7691 51.5757 43.2791 51.0857 43.2791 50.4819C43.2791 49.8782 43.7691 49.3882 44.3729 49.3882H55.4203C56.024 49.3882 56.514 49.8782 56.514 50.4819C56.514 51.0857 56.024 51.5757 55.4203 51.5757Z" fill="black"/>
<path d="M121.563 51.9886H107.251C106.419 51.9886 105.745 51.3143 105.745 50.482C105.745 49.6502 106.419 48.9753 107.251 48.9753H121.563C122.396 48.9753 123.07 49.6496 123.07 50.482C123.069 51.3138 122.395 51.9886 121.563 51.9886V51.9886Z" fill="#FF9A02"/>
<path d="M103.586 38.9261C102.92 38.4268 102.785 37.4824 103.284 36.8174L113.404 23.3243C113.905 22.6582 114.85 22.5243 115.514 23.023C116.179 23.5223 116.314 24.4662 115.815 25.1318L105.695 38.6248C105.194 39.292 104.249 39.4238 103.586 38.9261Z" fill="#FF9A02"/>
<path d="M113.404 77.6404L103.284 64.1474C102.785 63.4818 102.92 62.5379 103.585 62.0386C104.25 61.5399 105.195 61.6739 105.695 62.34L115.814 75.833C116.314 76.4985 116.178 77.4425 115.513 77.9418C114.85 78.4394 113.905 78.3076 113.404 77.6404Z" fill="#FF9A02"/>
<path d="M19.6235 51.9886H5.31179C4.47999 51.9886 3.80515 51.3143 3.80515 50.482C3.80515 49.6502 4.47944 48.9753 5.31179 48.9753H19.6235C20.4553 48.9753 21.1301 49.6496 21.1301 50.482C21.1301 51.3138 20.4558 51.9886 19.6235 51.9886Z" fill="#FF9A02"/>
<path d="M11.3618 77.9418C10.6963 77.4425 10.5612 76.498 11.0605 75.833L21.1804 62.34C21.6797 61.6739 22.6236 61.5399 23.2892 62.0386C23.9547 62.5379 24.0898 63.4824 23.5905 64.1474L13.4706 77.6404C12.9718 78.306 12.0274 78.441 11.3618 77.9418V77.9418Z" fill="#FF9A02"/>
<path d="M21.1804 38.6247L11.0605 25.1311C10.5612 24.4655 10.6963 23.5216 11.3618 23.0223C12.0274 22.523 12.9713 22.6581 13.4706 23.3237L23.5905 36.8167C24.0898 37.4823 23.9547 38.4262 23.2892 38.9255C22.6242 39.4248 21.6797 39.2902 21.1804 38.6247Z" fill="#FF9A02"/>
<path d="M111.016 138.359C126.117 138.359 138.359 126.117 138.359 111.016C138.359 95.9141 126.117 83.6719 111.016 83.6719C95.9141 83.6719 83.6718 95.9141 83.6718 111.016C83.6718 126.117 95.9141 138.359 111.016 138.359Z" fill="#FF002E"/>
<path d="M116.429 111.016L127.472 99.9732C128.968 98.4764 128.968 96.0559 127.472 94.5597C125.975 93.0634 123.554 93.0634 122.058 94.5597L111.016 105.602L99.9731 94.5597C98.4774 93.064 96.0558 93.0634 94.5596 94.5597C93.0671 96.0521 93.0671 98.4808 94.5596 99.9732L105.602 111.016L94.5596 122.058C93.0671 123.551 93.0671 125.979 94.5596 127.472C96.0547 128.967 98.4774 128.969 99.9731 127.472L111.016 116.429L122.058 127.472C123.553 128.967 125.976 128.969 127.472 127.472C128.968 125.975 128.968 123.554 127.472 122.058L116.429 111.016Z" fill="white"/>
<path d="M111.438 139.453C95.757 139.453 83 126.696 83 111.016C83 95.3351 95.757 82.5781 111.438 82.5781C127.118 82.5781 139.875 95.3351 139.875 111.016C139.875 126.696 127.118 139.453 111.438 139.453ZM111.438 84.7656C96.9628 84.7656 85.1875 96.5409 85.1875 111.016C85.1875 125.49 96.9628 137.266 111.438 137.266C125.912 137.266 137.688 125.49 137.688 111.016C137.688 96.5409 125.912 84.7656 111.438 84.7656Z" fill="black"/>
</svg>

<svg width="140" height="140" fill="none" xmlns="http://www.w3.org/2000/svg"><path d="M87.442 82.168H39.434c-7.799 0-14.12 6.322-14.12 14.12v17.721H36.8v13.194h52.527v-13.194h12.234v-17.72c0-7.799-6.322-14.12-14.12-14.12z" fill="#FF9A02"/><path d="M25.313 114.009h11.488v13.194H25.313v-13.194z" fill="#fff"/><path d="M36.8 128.297H25.314c-.604 0-1.093-.49-1.093-1.094v-13.194c0-.604.49-1.094 1.093-1.094h11.488c.604 0 1.094.49 1.094 1.094v13.194c0 .604-.49 1.094-1.094 1.094zm-10.393-2.188h9.3v-11.007h-9.3v11.007z" fill="#000"/><path d="M89.328 114.009h12.234v13.194H89.328v-13.194z" fill="#fff"/><path d="M101.562 128.297H89.328c-.604 0-1.094-.49-1.094-1.094v-13.194c0-.604.49-1.094 1.094-1.094h12.234c.604 0 1.094.49 1.094 1.094v13.194c0 .604-.49 1.094-1.094 1.094zm-11.14-2.188h10.046v-11.007H90.422v11.007z" fill="#000"/><path d="M89.328 115.102c-.604 0-1.094-.49-1.094-1.093v-9.323a1.094 1.094 0 012.188 0v9.323c0 .603-.49 1.093-1.094 1.093z" fill="#000"/><path d="M49.318 69.885v13.414c0 7.79 6.316 14.105 14.106 14.105 7.786 0 14.105-6.31 14.105-14.106V69.885H49.32z" fill="#fff"/><path d="M89.328 128.297H36.801c-.604 0-1.094-.49-1.094-1.094v-12.101H25.313c-.604 0-1.093-.49-1.093-1.093v-17.72c0-8.39 6.825-15.214 15.214-15.214h8.791v-11.19c0-.604.49-1.094 1.094-1.094h28.21c.604 0 1.094.49 1.094 1.094v11.19h8.819c8.39 0 15.214 6.824 15.214 15.213v17.72c0 .604-.49 1.094-1.094 1.094h-11.14v12.101c0 .604-.49 1.094-1.094 1.094zm-51.433-2.188h50.339v-12.1c0-.604.49-1.094 1.094-1.094h11.14V96.288c0-7.182-5.844-13.026-13.026-13.026h-9.913c-.604 0-1.094-.49-1.094-1.094v-11.19H50.413v11.19c0 .604-.49 1.094-1.094 1.094h-9.886c-7.183 0-13.027 5.844-13.027 13.026v16.626h10.395c.604 0 1.094.49 1.094 1.094v12.101z" fill="#000"/><path d="M63.438 72.257c-18.268 0-33.077-14.809-33.077-33.077V25.326a8.314 8.314 0 018.314-8.314h57.84V39.18c0 18.268-14.81 33.077-33.078 33.077z" fill="#FF9A02"/><path d="M63.438 73.35c-18.843 0-34.17-15.328-34.17-34.17V25.326c0-5.187 4.22-9.408 9.407-9.408h57.84c.603 0 1.093.49 1.093 1.094V39.18c0 18.842-15.329 34.17-34.17 34.17zM38.674 18.106c-3.981 0-7.22 3.24-7.22 7.22V39.18c0 17.635 14.347 31.983 31.983 31.983 17.635 0 31.982-14.348 31.982-31.983V18.105H38.675z" fill="#000"/><path d="M91.61 41.416v-2.638c0-15.418-12.613-27.918-28.172-27.918-15.56 0-28.172 12.5-28.172 27.918v2.638c-4.892-.1-8.773 3.797-8.773 8.508 0 5.03 4.391 9.009 9.517 8.467 2.907 12.352 14.08 21.554 27.427 21.554 13.349 0 24.52-9.203 27.427-21.554 5.12.541 9.517-3.43 9.517-8.467.001-4.712-3.883-8.607-8.772-8.508z" fill="#fff"/><path d="M63.438 81.04c-13.362 0-24.856-8.798-28.269-21.507a9.77 9.77 0 01-6.59-2.488 9.596 9.596 0 01-3.18-7.12 9.51 9.51 0 012.882-6.841 9.617 9.617 0 015.891-2.722v-1.584c0-15.997 13.128-29.012 29.266-29.012 16.137 0 29.265 13.015 29.265 29.012v1.584a9.611 9.611 0 015.89 2.722 9.508 9.508 0 012.883 6.84 9.596 9.596 0 01-3.18 7.12 9.75 9.75 0 01-6.515 2.49h-.076C88.293 72.241 76.8 81.038 63.439 81.038zM36.01 57.296c.502 0 .946.345 1.063.844 2.87 12.194 13.712 20.71 26.364 20.71 12.651 0 23.492-8.516 26.362-20.71a1.1 1.1 0 011.18-.838 7.563 7.563 0 005.852-1.885 7.403 7.403 0 002.456-5.493c0-1.997-.79-3.872-2.225-5.278a7.46 7.46 0 00-5.432-2.137 1.152 1.152 0 01-.787-.312 1.097 1.097 0 01-.33-.782V38.78c0-14.79-12.146-26.824-27.077-26.824-14.93 0-27.078 12.033-27.078 26.824v2.637c0 .294-.118.576-.328.782-.21.206-.492.312-.788.312-2.065-.042-3.983.718-5.432 2.136a7.338 7.338 0 00-2.225 5.279c0 2.086.895 4.089 2.457 5.494a7.566 7.566 0 005.851 1.884 1.16 1.16 0 01.117-.006z" fill="#000"/><path d="M96.514 36.001H52.316c-9.417 0-17.05-7.634-17.05-17.05s7.634-17.05 17.05-17.05h28.93c8.432 0 15.268 6.836 15.268 15.269V36z" fill="#FF9A02"/><path d="M96.514 37.095H52.316c-10.005 0-18.144-8.14-18.144-18.144 0-10.005 8.14-18.144 18.144-18.144h28.93c9.022 0 16.362 7.34 16.362 16.362v18.833c0 .604-.49 1.093-1.094 1.093zm-44.198-34.1c-8.798 0-15.956 7.158-15.956 15.956 0 8.799 7.158 15.957 15.956 15.957h43.105V17.17c0-7.816-6.359-14.174-14.175-14.174h-28.93zM36.8 115.102c-.603 0-1.093-.49-1.093-1.093v-9.323a1.094 1.094 0 012.188 0v9.323c0 .603-.49 1.093-1.094 1.093z" fill="#000"/><path d="M71.449 72.34c.733.1 1.484.104 2.201-.073a6.034 6.034 0 000-11.71c-.717-.178-1.468-.173-2.2-.073a59.254 59.254 0 01-16.038 0c-.732-.1-1.483-.105-2.2.072a6.034 6.034 0 000 11.711c.717.177 1.468.173 2.2.073h.001a59.238 59.238 0 0116.036 0z" fill="#FF9A02"/><path d="M78.99 56.655c-.21 0-.422-.06-.61-.186l-7.562-5.08a1.093 1.093 0 010-1.815l7.563-5.079a1.093 1.093 0 111.22 1.816l-6.212 4.171 6.211 4.171a1.093 1.093 0 01-.61 2.002z" fill="#000"/><path d="M82.475 51.576H71.427a1.094 1.094 0 010-2.188h11.048a1.094 1.094 0 010 2.188zm-34.617 5.079a1.093 1.093 0 01-.611-2.002l6.211-4.171-6.211-4.171a1.093 1.093 0 111.22-1.816l7.563 5.08a1.093 1.093 0 010 1.815l-7.564 5.079a1.086 1.086 0 01-.608.186z" fill="#000"/><path d="M55.42 51.576H44.373a1.094 1.094 0 010-2.188H55.42a1.094 1.094 0 010 2.188z" fill="#000"/><path d="M121.563 51.989h-14.312a1.506 1.506 0 110-3.014h14.312a1.506 1.506 0 110 3.014zm-17.977-13.063a1.506 1.506 0 01-.302-2.109l10.12-13.493a1.507 1.507 0 012.411 1.807l-10.12 13.494a1.507 1.507 0 01-2.109.301zm9.818 38.714l-10.12-13.493a1.507 1.507 0 012.411-1.807l10.119 13.493a1.506 1.506 0 11-2.41 1.807zM19.623 51.989H5.313a1.507 1.507 0 010-3.014h14.311a1.507 1.507 0 010 3.014zm-8.261 25.953c-.666-.5-.8-1.444-.302-2.109L21.18 62.34a1.506 1.506 0 112.41 1.807L13.47 77.64a1.505 1.505 0 01-2.108.302zm9.818-39.317L11.06 25.13a1.506 1.506 0 112.41-1.807l10.12 13.493a1.506 1.506 0 01-2.41 1.808z" fill="#FF9A02"/><path d="M111.016 138.359c15.101 0 27.343-12.242 27.343-27.343 0-15.102-12.242-27.344-27.343-27.344-15.102 0-27.344 12.242-27.344 27.344 0 15.101 12.242 27.343 27.344 27.343z" fill="#FF002E"/><path d="M116.429 111.016l11.043-11.043a3.826 3.826 0 000-5.413 3.826 3.826 0 00-5.414 0l-11.042 11.042L99.973 94.56a3.826 3.826 0 00-5.413 0 3.832 3.832 0 000 5.413l11.042 11.043-11.042 11.042a3.833 3.833 0 000 5.414 3.826 3.826 0 005.413 0l11.043-11.043 11.042 11.043a3.827 3.827 0 005.414 0 3.827 3.827 0 000-5.414l-11.043-11.042z" fill="#fff"/><path d="M111.438 139.453C95.757 139.453 83 126.696 83 111.016c0-15.68 12.757-28.438 28.438-28.438 15.68 0 28.437 12.757 28.437 28.438 0 15.68-12.757 28.437-28.437 28.437zm0-54.687c-14.475 0-26.25 11.775-26.25 26.25 0 14.474 11.775 26.25 26.25 26.25 14.474 0 26.25-11.776 26.25-26.25 0-14.475-11.776-26.25-26.25-26.25z" fill="#000"/></svg>
